assets/img/icons/mail-dark.svg

<svg class="menu_mobile-only menu__list__item__icon menu__list__item__icon_mail-dark" viewBox="0 0 78 60" xmlns="http://www.w3.org/2000/svg">
    <path d="M68.279279,60 C73.627628,60 78,55.608796 78,50.193633 L78,9.8063669 C78,4.410896 73.647147,0 68.279279,0 L9.7207207,0 C4.3723724,0 0,4.3912045 0,9.8063669 L0,50.193633 C0,55.589104 4.3528529,60 9.7207207,60 L68.279279,60 L68.279279,60 Z M9.9354354,13.6462094 C8.9204204,12.7797834 8.8033033,11.2635379 9.6621622,10.2395799 C10.521021,9.2156219 12.024024,9.0974729 13.039039,9.9638989 L39,32.215294 L64.98048,9.9835904 C65.995495,9.1171644 67.498498,9.2550049 68.357357,10.2592714 C69.216216,11.2832294 69.07958,12.7994749 68.084084,13.6659009 L49.540541,29.53725 L68.162162,47.220217 C69.118619,48.126026 69.177177,49.661963 68.25976,50.626846 C67.791291,51.138825 67.147147,51.394815 66.522523,51.394815 C65.936937,51.394815 65.351351,51.178208 64.882883,50.744995 L45.851351,32.68789 L40.542042,37.236626 C40.0930931,37.610765 39.5465465,37.80768 39,37.80768 C38.4534535,37.80768 37.9069069,37.610765 37.457958,37.236626 L32.1486486,32.68789 L13.1171171,50.744995 C12.6486486,51.178208 12.0630631,51.394815 11.4774775,51.394815 C10.8333333,51.394815 10.2087087,51.138825 9.7402402,50.626846 C8.8423423,49.661963 8.8813814,48.126026 9.8378378,47.220217 L28.4594595,29.53725 L9.9354354,13.6462094 Z"></path>
</svg>

<svg class="menu_mobile-only menu__list__item__icon menu__list__item__icon_mail-dark" viewBox="0 0 78 60" xmlns="http://www.w3.org/2000/svg"><path d="M68.28 60c5.348 0 9.72-4.391 9.72-9.806V9.806C78 4.411 73.647 0 68.28 0H9.72C4.373 0 0 4.391 0 9.806v40.388C0 55.589 4.353 60 9.72 60h58.56zM9.934 13.646a2.423 2.423 0 0 1-.273-3.406 2.373 2.373 0 0 1 3.377-.276L39 32.215 64.98 9.984a2.39 2.39 0 0 1 3.377.275 2.44 2.44 0 0 1-.273 3.407L49.541 29.537 68.162 47.22c.957.906 1.015 2.442.098 3.407a2.361 2.361 0 0 1-1.737.768 2.408 2.408 0 0 1-1.64-.65L45.85 32.688l-5.309 4.549a2.414 2.414 0 0 1-1.542.57 2.414 2.414 0 0 1-1.542-.57l-5.31-4.55-19.03 18.058a2.408 2.408 0 0 1-1.64.65 2.33 2.33 0 0 1-1.738-.768c-.898-.965-.859-2.501.098-3.407l18.621-17.683-18.524-15.89z"/></svg>
